X: 421
T: A Trip To Rockchapel
R: jig
M: 6/8
K: Dmajor
||fe|:dAF AFE|DCA, A,DF|GAB Adf|gfg efe|
dAF AFE|DCB, A,DF|GAB Adf|edc d3:|
|:afd afd|bge bge|afd afd|cec Afg|
[1 afd afd|bge bge|afd Adf|edc efg:|
[2 dAF AFE|DCB, A,DF|GAB Adf|edc d3||

